_includes/icons/color-layers.svg

<svg fill="#666" height="50" viewBox="0 0 48 48" width="50" xmlns="http://www.w3.org/2000/svg"><path d="m24 42-20-6 20-10 20 6z" fill="#cfd8dc"/><path d="m31.5 28.25-7.5 3.75-7.5-2.25-2.609375 1.304688 9.535156 2.859375.757813.230468.710937-.355468 9.402344-4.699219z" fill="#b0bec5"/><path d="m24 32-20-6 20-10 20 6z" fill="#2196f3"/><path d="m24 22-20-6 20-10 20 6z" fill="#cddc39"/><path d="m31.5 18.25-7.5 3.75-7.5-2.25-2.609375 1.304688 9.535156 2.859375.757813.230468.710937-.355468 9.402344-4.699219z" fill="#1565c0"/></svg>

<svg xmlns="http://www.w3.org/2000/svg" viewBox="0 0 48 48" width="50" height="50" fill="#666"><path d="M 24 42 L 4 36 L 24 26 L 44 32 Z" fill="#cfd8dc"/><path d="M 31.5 28.25 L 24 32 L 16.5 29.75 L 13.890625 31.054688 L 23.425781 33.914063 L 24.183594 34.144531 L 24.894531 33.789063 L 34.296875 29.089844 Z" fill="#b0bec5"/><path d="M 24 32 L 4 26 L 24 16 L 44 22 Z" fill="#2196f3"/><path d="M 24 22 L 4 16 L 24 6 L 44 12 Z" fill="#cddc39"/><path d="M 31.5 18.25 L 24 22 L 16.5 19.75 L 13.890625 21.054688 L 23.425781 23.914063 L 24.183594 24.144531 L 24.894531 23.789063 L 34.296875 19.089844 Z" fill="#1565c0"/></svg>
